X:58
T:Lloyd's Whim THO4.058
M:2/4
L:1/8
Z:vmp. Peter Dunk 2010/11.from a transcription by Fynn Titford-Mock 2007
B:Thompson's Compleat Collection of 200 Favourite Country Dances Volume IV.
Q:1/2=80
K:G
BGBd|AFAc|BGBd|A2D2|BGBd|AFAc|BdAB|G2G2:|
gafg|efdf|gafg|e2d2|gafg|edeg|dBcA|G2 [G2G,2]:|
